static/img/celestia-icon.svg

<svg width="50" height="50" viewBox="0 0 50 50" fill="none" xmlns="http://www.w3.org/2000/svg">
<g clip-path="url(#clip0_903_1548)">
<path d="M25 50C38.8071 50 50 38.8071 50 25C50 11.1929 38.8071 0 25 0C11.1929 0 0 11.1929 0 25C0 38.8071 11.1929 50 25 50Z" fill="#7B2BF9"/>
<path d="M42.97 21.1799C42.25 17.7299 40.54 14.5699 37.99 12.0199C34.52 8.54989 29.91 6.63989 25 6.63989C20.09 6.63989 15.48 8.53989 12.01 12.0099C11.16 12.8599 10.42 13.7699 9.77 14.7299C9.58 14.9899 9.4 15.2599 9.25 15.5499C7.55 18.3799 6.64 21.6099 6.64 24.9999C6.64 29.9099 8.55 34.5199 12.02 37.9899C15.49 41.4599 20.1 43.3699 25.01 43.3699C29.92 43.3699 34.53 41.4599 38 37.9899C39.63 36.3599 40.93 34.4599 41.84 32.4099C41.95 32.1899 42.04 31.9499 42.13 31.7099C42.96 29.6099 43.39 27.3399 43.39 25.0099C43.39 23.7799 43.27 22.6099 43.03 21.4299C43.02 21.3699 42.98 21.2199 42.97 21.1799ZM36.6 12.7899C36.7 12.8899 36.81 12.9899 36.92 13.0999C38.54 14.7199 39.8 16.6199 40.63 18.6799C40.71 18.8799 40.54 19.1099 40.31 19.0699C39.83 18.9799 39.28 18.9499 38.68 18.9599C38.26 18.9699 37.89 18.6699 37.82 18.2699C37.49 16.4299 37.01 14.7399 36.41 13.2599C36.38 13.1799 36.34 13.0999 36.31 12.9999C36.23 12.8099 36.46 12.6399 36.6 12.7899ZM38.35 23.5599C38.35 23.3699 38.59 23.2799 38.71 23.4399C38.84 23.6299 38.98 23.8299 39.11 24.0199C39.28 24.2799 39.44 24.5399 39.58 24.7999C39.67 24.9599 39.65 25.1599 39.53 25.2999C39.34 25.5099 39.12 25.7399 38.89 25.9699C38.81 26.0499 38.72 26.1399 38.63 26.2299C38.52 26.3299 38.33 26.2499 38.34 26.1099C38.35 25.8299 38.36 25.5599 38.36 25.2699C38.37 24.6799 38.37 24.1199 38.35 23.5599ZM15.22 11.2799C18.06 9.24989 21.44 8.15989 25 8.15989C25.94 8.15989 26.87 8.23989 27.78 8.37989C28.02 8.41989 28.11 8.72989 27.91 8.87989C27.03 9.56989 26.22 10.5899 25.49 11.9099C25.32 12.2399 24.94 12.3899 24.58 12.2899C22.18 11.6199 19.82 11.2999 17.64 11.3699C16.83 11.3999 16.08 11.4799 15.36 11.6099C15.16 11.6599 15.06 11.3999 15.22 11.2799ZM12.82 36.4499C12.46 35.7899 12.92 34.2399 15.25 31.8799C15.49 31.6399 15.47 31.2399 15.2 31.0199C15.11 30.9499 15.02 30.8799 14.92 30.7999C14.69 30.6199 14.35 30.6299 14.14 30.8399C14.09 30.8899 14.06 30.9199 14.05 30.9299C12.89 32.1199 12.07 33.2299 11.62 34.2299C11.49 34.5199 11.1 34.5499 10.93 34.2799C9.12 31.5599 8.15 28.3599 8.15 25.0099C8.15 23.8199 8.27 22.6299 8.52 21.4899C8.56 21.3199 8.8 21.3099 8.86 21.4799C9.21 22.6299 9.78 23.8299 10.56 25.0299C11.62 26.6499 13.01 28.2099 14.67 29.6499C15.23 30.1399 15.83 30.6099 16.46 31.0699C17.73 31.9999 19.09 32.8499 20.55 33.5999C21.19 33.9399 21.83 34.2499 22.47 34.5499C22.83 34.7099 23.24 34.7199 23.6 34.5799C23.91 34.4599 24.21 34.3399 24.52 34.2099C24.86 34.0699 25.04 33.7099 24.95 33.3499C24.94 33.3099 24.93 33.2699 24.93 33.2499C24.42 31.1199 24.14 28.7099 24.1 26.1999C24.1 26.1699 24.1 25.5999 24.1 25.0099C24.1 24.4199 24.12 24.1499 24.14 23.7199C24.29 20.6799 24.81 17.8299 25.63 15.4199C25.7 15.1999 25.59 14.9599 25.36 14.8799C25.15 14.8099 24.93 14.7399 24.71 14.6699C24.5 14.5999 24.26 14.7199 24.18 14.9399C23.29 17.5499 22.74 20.6399 22.6 23.9099C22.58 24.3299 22.36 24.7099 22 24.9199C20.06 26.0699 18.29 27.2899 16.74 28.5099C16.42 28.7699 15.96 28.7499 15.65 28.4899C14.11 27.1499 12.81 25.6999 11.83 24.1899C9.9 21.2299 9.44 18.4499 10.54 16.3399L10.55 16.3299C10.69 16.0999 10.84 15.8699 10.99 15.6499C12.25 13.9899 14.59 13.0199 17.7 12.9099C17.89 12.8999 18.1 12.8999 18.29 12.8999C20.2 12.8999 22.24 13.2199 24.32 13.8199C24.36 13.8299 24.66 13.9199 24.72 13.9399C25.25 14.1099 26.15 14.4199 26.27 14.4599C26.32 14.4799 26.6 14.5899 26.64 14.5999C27.66 14.9999 28.67 15.4499 29.67 15.9699C31.61 16.9799 33.38 18.1599 34.94 19.4599C31.99 20.1299 28.56 21.4399 25.11 23.1899C24.95 23.2699 24.84 23.4299 24.83 23.6099C24.82 23.8199 24.8 24.2499 24.79 24.5999C24.78 24.8099 25.01 24.9599 25.2 24.8599C28.62 23.0599 32.03 21.7299 34.96 21.0099C35.51 20.8799 35.86 20.3599 35.79 19.7999C35.74 19.4099 35.68 19.0199 35.61 18.6499C35.53 18.1799 35.26 17.7499 34.89 17.4699C33.52 16.4299 32.01 15.4699 30.39 14.6199C29.3 14.0499 28.2 13.5599 27.08 13.1299C26.85 13.0399 26.74 12.7599 26.87 12.5399C28.01 10.4999 29.37 9.35989 30.7 9.35989C30.71 9.35989 30.73 9.35989 30.74 9.35989C32.3 9.38989 33.85 11.0099 35.01 13.8199C35.59 15.2399 36.04 16.8799 36.36 18.6599C36.45 19.1599 36.52 19.6699 36.58 20.1899C36.61 20.4599 36.66 20.8699 36.69 21.0499C36.82 22.3999 36.87 23.8099 36.85 25.2399C36.83 26.1499 36.79 27.0499 36.71 27.9199C34.62 29.5999 32.04 31.2899 29.2 32.7899C28.43 33.1899 27.66 33.5799 26.9 33.9399C26.74 34.0199 26.08 34.3099 26.04 34.3299C25.32 34.6599 24.61 34.9499 23.9 35.2299C23.86 35.2499 23.06 35.5499 23.01 35.5699C22.95 35.5899 22.54 35.7399 22.49 35.7599C20.96 36.2999 19.49 36.7099 18.15 36.9699C14.76 37.6199 13.17 37.1199 12.82 36.4499ZM17.43 29.9099C18.91 28.7099 20.65 27.4899 22.56 26.3499C22.6 28.7899 22.87 31.1399 23.35 33.2499C22.65 32.9399 21.94 32.6199 21.24 32.2499C19.88 31.5499 18.6 30.7599 17.43 29.9099ZM27.17 41.7099C26.46 41.7999 25.73 41.8499 25 41.8499C21.72 41.8499 18.59 40.9199 15.91 39.1899C15.73 39.0699 15.81 38.7799 16.02 38.7699C16.06 38.7699 16.11 38.7699 16.14 38.7599C16.82 38.7199 17.57 38.6199 18.38 38.4599C20.1 38.1199 22.02 37.5599 24.03 36.7899C24.21 36.7199 24.41 36.8099 24.49 36.9899C25.27 38.8899 26.22 40.3199 27.31 41.2299C27.5 41.3899 27.41 41.6799 27.17 41.7099ZM34.3 37.2099C33.1 39.5799 31.62 40.8999 30.18 40.8699C28.62 40.8399 27.07 39.2199 25.91 36.4099C25.84 36.2399 25.92 36.0299 26.09 35.9499C26.1 35.9399 26.11 35.9399 26.13 35.9299C26.2 35.8999 26.29 35.8899 26.37 35.9099C28.52 36.5099 30.65 36.8299 32.64 36.8299C32.85 36.8299 33.07 36.8299 33.28 36.8199C33.52 36.8099 33.77 36.7999 34.01 36.7799C34.24 36.7799 34.4 37.0099 34.3 37.2099ZM34.82 35.1699C34.32 35.2399 33.79 35.2899 33.24 35.3099C31.89 35.3599 30.46 35.2399 29 34.9699C28.82 34.9399 28.79 34.6899 28.95 34.6099C29.27 34.4499 29.59 34.2799 29.91 34.1099C32.15 32.9199 34.25 31.6199 36.08 30.2899C36.21 30.1899 36.41 30.3099 36.38 30.4699C36.12 31.9999 35.78 33.4399 35.33 34.7399C35.24 34.9799 35.05 35.1399 34.82 35.1699ZM37.31 36.5099C37.19 36.6399 37.05 36.7799 36.92 36.9099C36.7 37.1299 36.45 37.3599 36.22 37.5699C36.07 37.6999 35.84 37.5399 35.92 37.3599C35.94 37.3099 35.97 37.2599 35.99 37.1999C36.09 36.9799 36.18 36.7499 36.29 36.5199C36.31 36.4699 36.36 36.4299 36.41 36.4099C36.64 36.3499 36.88 36.2799 37.1 36.2099C37.3 36.1499 37.44 36.3799 37.31 36.5099ZM40.69 31.1699C40.62 31.3399 40.56 31.5099 40.48 31.6799C40.46 31.7099 40.36 31.9199 40.35 31.9499C39.79 32.9799 38.87 33.7899 37.67 34.3599C37.39 34.4899 37.09 34.2399 37.17 33.9399C37.59 32.4599 37.89 30.8599 38.1 29.1699C38.14 28.8499 38.29 28.5699 38.53 28.3599C39.04 27.9199 39.52 27.4699 39.96 27.0299C40.17 26.8199 40.54 26.9099 40.63 27.1999C41.06 28.6499 41.09 29.9999 40.69 31.1699ZM41.03 23.2799C40.91 23.4999 40.58 23.5099 40.44 23.2999C40.42 23.2699 40.4 23.2299 40.38 23.1999C39.88 22.4199 39.3 21.6699 38.66 20.9299C38.5 20.7499 38.63 20.4699 38.87 20.4599H38.88C40.39 20.4599 41.18 20.8399 41.42 21.2899C41.61 21.6699 41.55 22.3399 41.03 23.2799ZM41.85 25.4999C41.85 25.6099 41.69 25.6399 41.65 25.5399C41.63 25.4999 41.61 25.4499 41.59 25.4099C41.55 25.3299 41.56 25.2299 41.62 25.1499C41.63 25.1399 41.65 25.1099 41.68 25.0699C41.75 24.9799 41.86 24.9899 41.86 25.0899C41.85 25.2299 41.85 25.3599 41.85 25.4999Z" fill="white"/>
</g>
<defs>
<clipPath id="clip0_903_1548">
<rect width="50" height="50" fill="white"/>
</clipPath>
</defs>
</svg>

<svg xmlns="http://www.w3.org/2000/svg" width="50" height="50" fill="none"><g clip-path="url(#a)"><path fill="#7B2BF9" d="M25 50c13.807 0 25-11.193 25-25S38.807 0 25 0 0 11.193 0 25s11.193 25 25 25"/><path fill="#fff" d="M42.97 21.18c-.72-3.45-2.43-6.61-4.98-9.16A18.24 18.24 0 0 0 25 6.64c-4.91 0-9.52 1.9-12.99 5.37-.85.85-1.59 1.76-2.24 2.72-.19.26-.37.53-.52.82-1.7 2.83-2.61 6.06-2.61 9.45 0 4.91 1.91 9.52 5.38 12.99s8.08 5.38 12.99 5.38 9.52-1.91 12.99-5.38c1.63-1.63 2.93-3.53 3.84-5.58.11-.22.2-.46.29-.7.83-2.1 1.26-4.37 1.26-6.7 0-1.23-.12-2.4-.36-3.58-.01-.06-.05-.21-.06-.25m-6.37-8.39c.1.1.21.2.32.31a16.8 16.8 0 0 1 3.71 5.58c.08.2-.09.43-.32.39-.48-.09-1.03-.12-1.63-.11a.85.85 0 0 1-.86-.69c-.33-1.84-.81-3.53-1.41-5.01-.03-.08-.07-.16-.1-.26-.08-.19.15-.36.29-.21m1.75 10.77c0-.19.24-.28.36-.12l.4.58c.17.26.33.52.47.78.09.16.07.36-.05.5-.19.21-.41.44-.64.67l-.26.26c-.11.1-.3.02-.29-.12.01-.28.02-.55.02-.84.01-.59.01-1.15-.01-1.71M15.22 11.28A16.72 16.72 0 0 1 25 8.16c.94 0 1.87.08 2.78.22.24.04.33.35.13.5-.88.69-1.69 1.71-2.42 3.03-.17.33-.55.48-.91.38-2.4-.67-4.76-.99-6.94-.92-.81.03-1.56.11-2.28.24-.2.05-.3-.21-.14-.33m-2.4 25.17c-.36-.66.1-2.21 2.43-4.57a.58.58 0 0 0-.05-.86c-.09-.07-.18-.14-.28-.22a.594.594 0 0 0-.78.04l-.09.09c-1.16 1.19-1.98 2.3-2.43 3.3a.39.39 0 0 1-.69.05c-1.81-2.72-2.78-5.92-2.78-9.27 0-1.19.12-2.38.37-3.52.04-.17.28-.18.34-.01.35 1.15.92 2.35 1.7 3.55 1.06 1.62 2.45 3.18 4.11 4.62.56.49 1.16.96 1.79 1.42 1.27.93 2.63 1.78 4.09 2.53.64.34 1.28.65 1.92.95.36.16.77.17 1.13.03.31-.12.61-.24.92-.37.34-.14.52-.5.43-.86-.01-.04-.02-.08-.02-.1-.51-2.13-.79-4.54-.83-7.05v-1.19c0-.59.02-.86.04-1.29.15-3.04.67-5.89 1.49-8.3a.43.43 0 0 0-.27-.54c-.21-.07-.43-.14-.65-.21a.43.43 0 0 0-.53.27c-.89 2.61-1.44 5.7-1.58 8.97-.02.42-.24.8-.6 1.01a49 49 0 0 0-5.26 3.59.86.86 0 0 1-1.09-.02c-1.54-1.34-2.84-2.79-3.82-4.3-1.93-2.96-2.39-5.74-1.29-7.85l.01-.01c.14-.23.29-.46.44-.68 1.26-1.66 3.6-2.63 6.71-2.74.19-.01.4-.01.59-.01 1.91 0 3.95.32 6.03.92.04.01.34.1.4.12.53.17 1.43.48 1.55.52.05.02.33.13.37.14 1.02.4 2.03.85 3.03 1.37 1.94 1.01 3.71 2.19 5.27 3.49-2.95.67-6.38 1.98-9.83 3.73-.16.08-.27.24-.28.42-.01.21-.03.64-.04.99-.01.21.22.36.41.26 3.42-1.8 6.83-3.13 9.76-3.85.55-.13.9-.65.83-1.21-.05-.39-.11-.78-.18-1.15-.08-.47-.35-.9-.72-1.18-1.37-1.04-2.88-2-4.5-2.85-1.09-.57-2.19-1.06-3.31-1.49a.413.413 0 0 1-.21-.59c1.14-2.04 2.5-3.18 3.83-3.18h.04c1.56.03 3.11 1.65 4.27 4.46.58 1.42 1.03 3.06 1.35 4.84.09.5.16 1.01.22 1.53.03.27.08.68.11.86a38.3 38.3 0 0 1 .02 6.87c-2.09 1.68-4.67 3.37-7.51 4.87-.77.4-1.54.79-2.3 1.15-.16.08-.82.37-.86.39-.72.33-1.43.62-2.14.9-.04.02-.84.32-.89.34-.06.02-.47.17-.52.19-1.53.54-3 .95-4.34 1.21-3.39.65-4.98.15-5.33-.52m4.61-6.54a44 44 0 0 1 5.13-3.56c.04 2.44.31 4.79.79 6.9-.7-.31-1.41-.63-2.11-1a29.4 29.4 0 0 1-3.81-2.34m9.74 11.8c-.71.09-1.44.14-2.17.14-3.28 0-6.41-.93-9.09-2.66-.18-.12-.1-.41.11-.42.04 0 .09 0 .12-.01.68-.04 1.43-.14 2.24-.3 1.72-.34 3.64-.9 5.65-1.67.18-.07.38.02.46.2.78 1.9 1.73 3.33 2.82 4.24.19.16.1.45-.14.48m7.13-4.5c-1.2 2.37-2.68 3.69-4.12 3.66-1.56-.03-3.11-1.65-4.27-4.46-.07-.17.01-.38.18-.46.01-.01.02-.01.04-.02.07-.03.16-.04.24-.02 2.15.6 4.28.92 6.27.92.21 0 .43 0 .64-.01.24-.01.49-.02.73-.04.23 0 .39.23.29.43m.52-2.04c-.5.07-1.03.12-1.58.14-1.35.05-2.78-.07-4.24-.34-.18-.03-.21-.28-.05-.36.32-.16.64-.33.96-.5 2.24-1.19 4.34-2.49 6.17-3.82.13-.1.33.02.3.18-.26 1.53-.6 2.97-1.05 4.27-.09.24-.28.4-.51.43m2.49 1.34c-.12.13-.26.27-.39.4-.22.22-.47.45-.7.66-.15.13-.38-.03-.3-.21.02-.05.05-.1.07-.16.1-.22.19-.45.3-.68.02-.05.07-.09.12-.11.23-.06.47-.13.69-.2.2-.06.34.17.21.3m3.38-5.34c-.07.17-.13.34-.21.51-.02.03-.12.24-.13.27-.56 1.03-1.48 1.84-2.68 2.41a.359.359 0 0 1-.5-.42c.42-1.48.72-3.08.93-4.77.04-.32.19-.6.43-.81.51-.44.99-.89 1.43-1.33.21-.21.58-.12.67.17.43 1.45.46 2.8.06 3.97m.34-7.89c-.12.22-.45.23-.59.02-.02-.03-.04-.07-.06-.1-.5-.78-1.08-1.53-1.72-2.27-.16-.18-.03-.46.21-.47h.01c1.51 0 2.3.38 2.54.83.19.38.13 1.05-.39 1.99m.82 2.22c0 .11-.16.14-.2.04-.02-.04-.04-.09-.06-.13a.25.25 0 0 1 .03-.26c.01-.01.03-.04.06-.08.07-.09.18-.08.18.02-.01.14-.01.27-.01.41"/></g><defs><clipPath id="a"><path fill="#fff" d="M0 0h50v50H0z"/></clipPath></defs></svg>
